static/assets/images/tokens/wusdm.svg

<svg width="256" height="256" viewBox="0 0 256 256" fill="none" xmlns="http://www.w3.org/2000/svg">
<path d="M128 256C161.948 256 194.505 242.514 218.51 218.51C242.514 194.505 256 161.948 256 128C256 94.0523 242.514 61.495 218.51 37.4903C194.505 13.4857 161.948 0 128 0C94.0523 0 61.495 13.4857 37.4903 37.4903C13.4857 61.495 0 94.0523 0 128C0 161.948 13.4857 194.505 37.4903 218.51C61.495 242.514 94.0523 256 128 256Z" fill="#F6F6F6"/>
<path d="M157 127.75C157 135.375 153.971 142.688 148.579 148.079C143.188 153.471 135.875 156.5 128.25 156.5C120.625 156.5 113.312 153.471 107.921 148.079C102.529 142.688 99.5 135.375 99.5 127.75C99.5 120.125 102.529 112.812 107.921 107.421C113.312 102.029 120.625 99 128.25 99C135.875 99 143.188 102.029 148.579 107.421C153.971 112.812 157 120.125 157 127.75Z" fill="black"/>
<path fill-rule="evenodd" clip-rule="evenodd" d="M128.225 51.4991C136.236 51.5118 143.997 48.7163 150.16 43.5986C156.442 38.3874 166.543 36.1464 172.369 41.8593C186.383 55.6178 200.263 69.5129 214.005 83.5426C219.738 89.3894 217.51 99.5443 212.299 105.859C207.216 112.012 204.44 119.747 204.452 127.728C204.441 135.748 207.244 143.518 212.373 149.683C217.604 155.978 219.865 166.133 214.139 171.98C200.396 186.009 186.507 199.895 172.476 213.636C166.63 219.363 156.482 217.108 150.18 211.877C144.015 206.748 136.245 203.945 128.225 203.956C120.244 203.944 112.509 206.72 106.357 211.803C100.042 217.008 89.8872 219.236 84.0405 213.503C70.0138 199.761 56.1212 185.884 42.3646 171.873C36.6451 166.046 38.8861 155.945 44.0972 149.663C49.2138 143.498 52.007 135.733 51.9909 127.721C52.0008 119.754 49.2331 112.033 44.1641 105.886C38.9797 99.5844 36.7722 89.4763 42.4917 83.6496C56.2527 69.6382 70.1408 55.7521 84.1542 41.9931C89.9741 36.2735 100.089 38.4811 106.39 43.6655C112.538 48.7361 120.262 51.504 128.232 51.4924L128.225 51.4991ZM144.514 68.6247C140.215 64.3263 134.385 61.9117 128.305 61.9117C122.226 61.9117 116.396 64.3263 112.096 68.6247L69.0359 111.679C66.9066 113.808 65.2175 116.336 64.0651 119.117C62.9127 121.899 62.3196 124.881 62.3196 127.892C62.3196 130.903 62.9127 133.884 64.0651 136.666C65.2175 139.448 66.9066 141.975 69.0359 144.104L112.096 187.159C116.396 191.457 122.226 193.872 128.305 193.872C134.385 193.872 140.215 191.457 144.514 187.159L187.568 144.104C189.697 141.975 191.386 139.448 192.539 136.666C193.691 133.884 194.284 130.903 194.284 127.892C194.284 124.881 193.691 121.899 192.539 119.117C191.386 116.336 189.697 113.808 187.568 111.679L144.514 68.6247Z" fill="black"/>
</svg>

<svg xmlns="http://www.w3.org/2000/svg" fill="none" viewBox="0 0 256 256"><path fill="#F6F6F6" d="M128 256a128 128 0 0 0 90.51-37.49 128.003 128.003 0 0 0 0-181.02A128.001 128.001 0 1 0 128 256"/><path fill="#000" d="M157 127.75a28.747 28.747 0 0 1-28.75 28.75 28.747 28.747 0 0 1-28.75-28.75A28.747 28.747 0 0 1 128.25 99 28.747 28.747 0 0 1 157 127.75"/><path fill="#000" fill-rule="evenodd" d="M128.225 51.5a34.25 34.25 0 0 0 21.935-7.901c6.282-5.212 16.383-7.453 22.209-1.74a3012 3012 0 0 1 41.636 41.684c5.733 5.846 3.505 16.001-1.706 22.316a34.26 34.26 0 0 0-7.847 21.869 34.26 34.26 0 0 0 7.921 21.955c5.231 6.295 7.492 16.45 1.766 22.297a2841 2841 0 0 1-41.663 41.656c-5.846 5.727-15.994 3.472-22.296-1.759a34.26 34.26 0 0 0-21.955-7.921 34.25 34.25 0 0 0-21.868 7.847c-6.315 5.205-16.47 7.433-22.317 1.7a3034 3034 0 0 1-41.675-41.63c-5.72-5.827-3.479-15.928 1.732-22.21a34.25 34.25 0 0 0 7.894-21.942 34.25 34.25 0 0 0-7.827-21.835c-5.184-6.302-7.392-16.41-1.672-22.236a3242 3242 0 0 1 41.662-41.657c5.82-5.72 15.935-3.512 22.236 1.672a34.25 34.25 0 0 0 21.842 7.827zm16.289 17.125a22.924 22.924 0 0 0-32.418 0l-43.06 43.054a22.93 22.93 0 0 0-6.716 16.213 22.93 22.93 0 0 0 6.716 16.212l43.06 43.055a22.93 22.93 0 0 0 32.418 0l43.054-43.055a22.93 22.93 0 0 0 0-32.425z" clip-rule="evenodd"/></svg>
